icons/svg/arrow-expand.svg

﻿<?xml version="1.0" encoding="utf-8"?>
<!DOCTYPE svg PUBLIC "-//W3C//DTD SVG 1.1//EN" "http://www.w3.org/Graphics/SVG/1.1/DTD/svg11.dtd">
<svg xmlns="http://www.w3.org/2000/svg" xmlns:xlink="http://www.w3.org/1999/xlink" version="1.1" baseProfile="full" width="24" height="24" viewBox="0 0 24.00 24.00" enable-background="new 0 0 24.00 24.00" xml:space="preserve">
	<path fill="#000000" fill-opacity="1" stroke-width="0.2" stroke-linejoin="miter" d="M 10.0002,20.9998L 10.0002,18.9998L 6.4102,18.9998L 10.9102,14.4998L 9.5,13.0898L 5,17.5898L 5,14L 3,14L 3,21L 10.0002,20.9998 Z M 14.5,10.9104L 19,6.4104L 19,10.0002L 21,10.0002L 21,3L 14,3L 14,5L 17.59,5L 13.09,9.5L 14.5,10.9104 Z "/>
</svg>

<svg xmlns="http://www.w3.org/2000/svg" version="1.1" baseProfile="full" width="24" height="24" viewBox="0 0 24.00 24.00" xml:space="preserve"><path fill="#000" fill-opacity="1" stroke-width=".2" stroke-linejoin="miter" d="M10 21v-2H6.41l4.5-4.5-1.41-1.41-4.5 4.5V14H3v7h7zm4.5-10.09l4.5-4.5V10h2V3h-7v2h3.59l-4.5 4.5 1.41 1.41z"/></svg>
